markup/sourceimages/icon21.svg

<svg xmlns="http://www.w3.org/2000/svg" width="21" height="21"><path fill-rule="evenodd" fill="#0D1B27" d="M20.807 20.455c-.22.341-.592.545-.996.545H1.188c-.403 0-.775-.204-.995-.545a1.204 1.204 0 0 1-.09-1.14l2.375-5.402a1.2 1.2 0 0 1 .537-.577l3.687-1.938a.237.237 0 0 1 .253.022 5.803 5.803 0 0 0 3.545 1.217 5.805 5.805 0 0 0 3.545-1.217.237.237 0 0 1 .253-.022l3.687 1.938a1.2 1.2 0 0 1 .537.577l2.375 5.402c.164.372.13.798-.09 1.14zM10.5 11.126c-2.6 0-4.708-2.491-4.708-5.563C5.792 1.302 7.9 0 10.5 0s4.708 1.302 4.708 5.563c0 3.072-2.108 5.563-4.708 5.563z"/></svg>

<svg 
 xmlns="http://www.w3.org/2000/svg"
 xmlns:xlink="http://www.w3.org/1999/xlink"
 width="21px" height="21px">
<path fill-rule="evenodd"  fill="rgb(13, 27, 39)"
 d="M20.807,20.455 C20.587,20.796 20.215,21.000 19.811,21.000 L1.188,21.000 C0.785,21.000 0.413,20.796 0.193,20.455 C-0.027,20.113 -0.061,19.687 0.103,19.315 L2.478,13.913 C2.587,13.665 2.778,13.461 3.015,13.336 L6.702,11.398 C6.783,11.356 6.881,11.364 6.955,11.420 C7.997,12.216 9.223,12.637 10.500,12.637 C11.777,12.637 13.002,12.216 14.045,11.420 C14.118,11.364 14.217,11.356 14.298,11.398 L17.985,13.336 C18.222,13.461 18.413,13.665 18.522,13.913 L20.897,19.315 C21.061,19.687 21.027,20.113 20.807,20.455 ZM10.500,11.126 C7.900,11.126 5.792,8.635 5.792,5.563 C5.792,1.302 7.900,-0.000 10.500,-0.000 C13.100,-0.000 15.208,1.302 15.208,5.563 C15.208,8.635 13.100,11.126 10.500,11.126 Z"/>
</svg>
